X: 851
T: Maggy's Weam is fu' I true
N: The "I" in the title actually looks like "J", but this collection prints them the same.
R: reel
B: Robert Bremner "A Collection of Scots Reels or Country Dances" 1757 p.85 #1
S: http://imslp.org/wiki/A_Collection_of_Scots_Reels_or_Country_Dances_(Bremner,_Robert)
Z: 2013 John Chambers <jc:trillian.mit.edu>
M: C
L: 1/8
K: D
% - - - - - - - - - - - - - - - - - - - - - - - - -
V: 1
B |\
ADFD ADFB | ADFA E/E/E GB |\
ADFD ABde | f>dg>e d/d/d d :|
|: A |\
defd geaf | gefd e/e/e eB |\
defd eBdA | BA dF D/D/D D :|
% - - - - - - - - - - - - - - - - - - - - - - - - -
V: 2 clef=bass middle=d
z |\
d2d2 d2d2 | d2d2 e2e2 |\
d2d2 d2d2 | A2A2 D2D :|\
|: z |\
d2d2 d2d2 | d2d2 e2e2 |\
d2d2 d2d2 | g2a2 d2d :|
% - - - - - - - - - - - - - - - - - - - - - - - - -

%%sep 1 1 500
%%sep 1 1 500
